packages/kaspersky-hexa-ui-icons/src/iconsSVGs/24/NATRules.svg

<svg xmlns="http://www.w3.org/2000/svg" width="24" height="24" fill="none" viewBox="0 0 24 24"><path fill="#000" fill-rule="evenodd" d="M12 2c1.1046 0 2 .8954 2 2 0 .7398-.4029 1.3835-1 1.7295V9h2c.5523 0 1 .4477 1 1v1h2c1.1046 0 2 .8954 2 2v5.2695c.5973.346 1 .9906 1 1.7305 0 1.1046-.8954 2-2 2s-2-.8954-2-2c0-.7399.4027-1.3845 1-1.7305V13h-2v1c0 .5523-.4477 1-1 1h-2v3.2695c.5973.346 1 .9906 1 1.7305 0 1.1046-.8954 2-2 2s-2-.8954-2-2c0-.7399.4027-1.3845 1-1.7305V15H9c-.5523 0-1-.4477-1-1v-1H6v5.2695c.5973.346 1 .9906 1 1.7305 0 1.1046-.8954 2-2 2s-2-.8954-2-2c0-.7399.4027-1.3845 1-1.7305V13c0-1.1046.8954-2 2-2h2v-1c0-.5523.4477-1 1-1h2V5.7295c-.5971-.346-1-.9897-1-1.7295 0-1.1046.8954-2 2-2m-2 11h4v-2h-4z"/></svg>

<svg width="24" height="24" viewBox="0 0 24 24" fill="none" xmlns="http://www.w3.org/2000/svg">
<path fill-rule="evenodd" clip-rule="evenodd" d="M12 2C13.1046 2 14 2.89543 14 4C14 4.73976 13.5971 5.3835 13 5.72949V9H15C15.5523 9 16 9.44772 16 10V11H18C19.1046 11 20 11.8954 20 13V18.2695C20.5973 18.6155 21 19.2601 21 20C21 21.1046 20.1046 22 19 22C17.8954 22 17 21.1046 17 20C17 19.2601 17.4027 18.6155 18 18.2695V13H16V14C16 14.5523 15.5523 15 15 15H13V18.2695C13.5973 18.6155 14 19.2601 14 20C14 21.1046 13.1046 22 12 22C10.8954 22 10 21.1046 10 20C10 19.2601 10.4027 18.6155 11 18.2695V15H9C8.44772 15 8 14.5523 8 14V13H6V18.2695C6.59733 18.6155 7 19.2601 7 20C7 21.1046 6.10457 22 5 22C3.89543 22 3 21.1046 3 20C3 19.2601 3.40267 18.6155 4 18.2695V13C4 11.8954 4.89543 11 6 11H8V10C8 9.44772 8.44772 9 9 9H11V5.72949C10.4029 5.3835 10 4.73976 10 4C10 2.89543 10.8954 2 12 2ZM10 13H14V11H10V13Z" fill="black"/>
</svg>
